X:1428
T:Catkanei
C:Valentin Hau\ssmann
O:Germany
B:Hau\ssmann1603
Z:Transcribed by Frank Nordberg - http://www.musicaviva.com
F:http://abc.musicaviva.com/tunes/haussmann-valentin/haussmann-catkanei.abc
M:C
L:1/4
K:F
ccf2|ccf2|ccfc|fcAF:|
|:ddg2|ddg2|ddgd|gd=BG:|
|:GGc2|GGc2|GGcG|cG=EF|F/G/AAG|FFf2:|
W:
W:
W:  From Musica Viva - http://www.musicaviva.com
W:  the Internet center for free sheet music downloads.
